modules/feathericon/icons/bread.svg

<?xml version="1.0" encoding="UTF-8"?>
<svg width="24px" height="24px" viewBox="0 0 24 24" version="1.1" xmlns="http://www.w3.org/2000/svg" xmlns:xlink="http://www.w3.org/1999/xlink">
    <!-- Generator: sketchtool 52.2 (67145) - http://www.bohemiancoding.com/sketch -->
    <title>bread</title>
    <desc>Created with sketchtool.</desc>
    <g id="food" stroke="none" stroke-width="1" fill="none" fill-rule="evenodd">
        <g id="bread" fill="#000000" fill-rule="nonzero">
            <path d="M17,19 L17,10.3112884 L17.9985481,9.73365949 C18.6144747,9.37736519 19,8.72333537 19,8 L19,7 C19,5.8954305 18.1045695,5 17,5 L7,5 C5.8954305,5 5,5.8954305 5,7 L5,8 C5,8.72333537 5.38552532,9.37736519 6.00145191,9.73365949 L7,10.3112884 L7,19 L17,19 Z M19,19 C19,20.1045695 18.1045695,21 17,21 L7,21 C5.8954305,21 5,20.1045695 5,19 L5,11.4648712 C3.80439726,10.7732524 3,9.48056471 3,8 L3,7 C3,4.790861 4.790861,3 7,3 L17,3 C19.209139,3 21,4.790861 21,7 L21,8 C21,9.48056471 20.1956027,10.7732524 19,11.4648712 L19,19 Z" id="Shape"></path>
        </g>
    </g>
</svg>

<svg width="24" height="24" viewBox="0 0 24 24" xmlns="http://www.w3.org/2000/svg"><path d="M17 19v-8.689l.999-.577A1.998 1.998 0 0 0 19 8V7a2 2 0 0 0-2-2H7a2 2 0 0 0-2 2v1c0 .723.386 1.377 1.001 1.734L7 10.31V19h10zm2 0a2 2 0 0 1-2 2H7a2 2 0 0 1-2-2v-7.535A3.998 3.998 0 0 1 3 8V7a4 4 0 0 1 4-4h10a4 4 0 0 1 4 4v1c0 1.48-.804 2.773-2 3.465V19z" fill="#000" fill-rule="nonzero"/></svg>
